X: 5
T: The Flood on the Road To Glenties
C: Jimmy McHugh
S: https://thesession.org/tunes/3440
R: reel
M: 4/4
L: 1/8
K: Bdor
|: A | FB~B2 cfec | cfec BAFE | FB~B2 caaf | gfeg ~f3e |
 fafe cfec | ~B3A defg | af~f2 fecB | cfec ~B3 :|
|: c | dB~B2 aBgB | fB~B2 cBAc | dB~B2 abaf | gfeg ~f3e |
 fafe cfec | ~B3A defg | af~f2 fecB | cfec ~B3 :|


